usr/share/icons/biglinux-icons-material/scalable/apps/distributor-logo-kubuntu.svg

<svg width="64" height="64" viewBox="0 0 16.933 16.933" xmlns="http://www.w3.org/2000/svg"><path d="M8.38 1.323a7.144 7.144 0 1 1 0 14.287 7.144 7.144 0 0 1 0-14.287z" fill="#1a87e2" stroke-width=".927"/><path d="M8.467 4.233a4.233 4.233 0 1 0 0 8.467 4.233 4.233 0 0 0 0-8.467zm-.257.85c.02.002.037.014.046.032l.418.879c.203.006.408.041.607.105l.671-.671a.056.056 0 0 1 .07-.008l.534.325a.057.057 0 0 1 .024.068l-.324.914c.122.136.226.285.31.444h.997c.027 0 .05.019.056.044l.148.608a.057.057 0 0 1-.03.065l-1.25.273a2.044 2.044 0 0 0-2.67-1.631l-.01-.006-.268-1.236c0-.026.019-.049.044-.055l.607-.148c.007-.002.013-.002.02-.002zm-1.98.894a.056.056 0 0 1 .037.01l.95.865a2.038 2.038 0 0 0-.137 3.113v.014l-.854.943a.058.058 0 0 1-.07-.008l-.442-.441a.057.057 0 0 1-.007-.072l.534-.814a2.21 2.21 0 0 1-.227-.573l-.922-.226a.057.057 0 0 1-.043-.055v-.625c0-.027.019-.05.045-.056l.95-.198c.053-.175.127-.342.218-.496l-.517-.852a.057.057 0 0 1 .008-.07l.442-.442a.055.055 0 0 1 .035-.017zm4.232 2.93 1.24.278c.022.012.034.04.027.065l-.162.603a.057.057 0 0 1-.059.043l-.972-.057a2.21 2.21 0 0 1-.383.483l.265.911a.057.057 0 0 1-.026.065l-.542.312a.057.057 0 0 1-.071-.011l-.646-.725a2.236 2.236 0 0 1-.538.06l-.48.873a.057.057 0 0 1-.065.028l-.604-.163a.057.057 0 0 1-.042-.058l.326-1.235.006-.003a2.044 2.044 0 0 0 2.726-1.468z" fill="#fff"/></svg>

<?xml version="1.0" encoding="UTF-8" standalone="no"?>
<svg
   width="24"
   height="24"
   viewBox="0 0 24 24"
   fill="none"
   version="1.1"
   id="svg154"
   sodipodi:docname="distributor-logo-kubuntu.svg"
   inkscape:version="1.2.2 (b0a8486541, 2022-12-01)"
   xml:space="preserve"
   xmlns:inkscape="http://www.inkscape.org/namespaces/inkscape"
   xmlns:sodipodi="http://sodipodi.sourceforge.net/DTD/sodipodi-0.dtd"
   xmlns:xlink="http://www.w3.org/1999/xlink"
   xmlns="http://www.w3.org/2000/svg"
   xmlns:svg="http://www.w3.org/2000/svg"
   xmlns:sketch="http://www.bohemiancoding.com/sketch/ns"><sodipodi:namedview
     id="namedview156"
     pagecolor="#ffffff"
     bordercolor="#000000"
     borderopacity="1"
     inkscape:showpageshadow="0"
     inkscape:pageopacity="1"
     inkscape:pagecheckerboard="false"
     inkscape:deskcolor="#ffffff"
     showgrid="true"
     inkscape:zoom="16"
     inkscape:cx="-0.4375"
     inkscape:cy="8.90625"
     inkscape:window-width="1920"
     inkscape:window-height="1052"
     inkscape:window-x="0"
     inkscape:window-y="0"
     inkscape:window-maximized="1"
     inkscape:current-layer="svg154"
     showguides="true"
     guidecolor="#ff0000"
     guideopacity="1"
     inkscape:lockguides="true"
     showborder="true"
     borderlayer="true"><inkscape:grid
       type="xygrid"
       id="grid356"
       color="#000000"
       opacity="0.10196078"
       empcolor="#000000"
       empopacity="0.10196078"
       snapvisiblegridlinesonly="true"
       enabled="true"
       visible="true"
       dotted="false" /><sodipodi:guide
       position="4.003125,23.042969"
       orientation="1,0"
       id="guide764"
       inkscape:locked="true" /><sodipodi:guide
       position="5.0007813,21.049219"
       orientation="1,0"
       id="guide2218"
       inkscape:locked="true" /><sodipodi:guide
       position="3.6445312,20"
       orientation="0,-1"
       id="guide2220"
       inkscape:locked="true" /><sodipodi:guide
       position="3.796875,5"
       orientation="0,-1"
       id="guide2222"
       inkscape:locked="true" /><sodipodi:guide
       position="3.625,4"
       orientation="0,-1"
       id="guide2224"
       inkscape:locked="true" /><sodipodi:guide
       position="19,4.8984375"
       orientation="1,0"
       id="guide2226"
       inkscape:locked="true" /><sodipodi:guide
       position="20,3.3312502"
       orientation="1,0"
       id="guide2228"
       inkscape:locked="true" /><sodipodi:guide
       position="22.875,19"
       orientation="0,-1"
       id="guide2230"
       inkscape:locked="true" /></sodipodi:namedview><defs
     id="defs152"><radialGradient
       id="radialGradient1281"
       cx="0"
       cy="0"
       r="1"
       gradientUnits="userSpaceOnUse"
       gradientTransform="translate(12 1) rotate(90) scale(22)"><stop
         stop-color="#8FC8FF"
         id="stop1277"
         offset="0.00424011"
         style="stop-color:#ffffff;stop-opacity:1;" /><stop
         offset="0.99151897"
         stop-color="#0056A8"
         id="stop1279"
         style="stop-color:#ffffff;stop-opacity:1;" /></radialGradient><radialGradient
       id="paint0_radial_29_23"
       cx="0"
       cy="0"
       r="1"
       gradientUnits="userSpaceOnUse"
       gradientTransform="translate(12 1) rotate(90) scale(22)"><stop
         stop-color="#8FC8FF"
         id="stop147"
         offset="0"
         style="stop-color:#f6f6f6;stop-opacity:1;" /><stop
         offset="1"
         stop-color="#0056A8"
         id="stop149"
         style="stop-color:#cfcfcf;stop-opacity:1;" /></radialGradient><radialGradient
       id="paint0_radial_10_2"
       cx="0"
       cy="0"
       r="1"
       gradientUnits="userSpaceOnUse"
       gradientTransform="matrix(-10.999959,21.999967,-21.999967,-10.999959,17.5,1)"
       xlink:href="#paint0_radial_29_23"><stop
         stop-color="#777777"
         id="stop2847" /><stop
         offset="1"
         stop-color="#222222"
         id="stop2849" /></radialGradient><linearGradient
       x1="12"
       y1="1"
       x2="12"
       y2="23"
       gradientUnits="userSpaceOnUse"
       gradientTransform="matrix(0.75,0,0,0.75,-7.98374e-6,2.65834e-5)"
       spreadMethod="pad"
       id="linearGradient44915"><stop
         style="stop-opacity:1;stop-color:#ff5f5f"
         offset="0"
         id="stop44911" /><stop
         style="stop-opacity:1;stop-color:#e82e34"
         offset="1"
         id="stop44913" /></linearGradient><radialGradient
       id="SVGID_1_"
       cx="85.226997"
       cy="71.662003"
       r="47.776001"
       gradientTransform="matrix(1,0,0,-1,0,103.8)"
       gradientUnits="userSpaceOnUse"><stop
         offset="0"
         stop-color="#00aeff"
         id="stop12" /><stop
         offset=".131"
         stop-color="#00a5f7"
         id="stop14" /><stop
         offset=".345"
         stop-color="#008de0"
         id="stop16" /><stop
         offset=".616"
         stop-color="#0065ba"
         id="stop18" /><stop
         offset=".928"
         stop-color="#002f87"
         id="stop20" /><stop
         offset="1"
         stop-color="#00217a"
         id="stop22" /></radialGradient><linearGradient
       id="SVGID_3_"
       gradientUnits="userSpaceOnUse"
       x1="92.800003"
       y1="72.949997"
       x2="130.763"
       y2="72.949997"
       gradientTransform="matrix(1,0,0,-1,0,103.8)"><stop
         offset="0"
         stop-color="#FFF"
         id="stop29" /><stop
         offset="1"
         stop-color="#FFF"
         stop-opacity="0"
         id="stop31" /></linearGradient><radialGradient
       id="SVGID_4_"
       cx="83.728996"
       cy="73.999001"
       r="8.2860003"
       gradientTransform="matrix(1,0,0,-1,0,103.8)"
       gradientUnits="userSpaceOnUse"><stop
         offset="0"
         stop-color="#FFF"
         id="stop36" /><stop
         offset=".679"
         stop-color="#7a7a7a"
         id="stop38" /><stop
         offset="1"
         stop-color="#404040"
         id="stop40" /></radialGradient><radialGradient
       fx="0"
       fy="0"
       cx="0"
       cy="0"
       r="1"
       gradientUnits="userSpaceOnUse"
       gradientTransform="matrix(0,16.5,-16.5,0,8.999996,0.750012)"
       spreadMethod="pad"
       id="radialGradient3666-6"><stop
         style="stop-color:#ffffff;stop-opacity:1;"
         offset="0"
         id="stop3662-7" /><stop
         style="stop-color:#f7da4d;stop-opacity:1;"
         offset="1"
         id="stop3664-5" /></radialGradient><clipPath
       id="a"><path
         d="M 0,0.113 H 91.887 V 92 H 0 Z m 0,0"
         id="path76179" /></clipPath><clipPath
       id="a-3"><path
         d="M 0,0.113 H 91.887 V 92 H 0 Z m 0,0"
         id="path76179-5" /></clipPath><radialGradient
       fx="0"
       fy="0"
       cx="0"
       cy="0"
       r="1"
       gradientUnits="userSpaceOnUse"
       gradientTransform="matrix(0,16.5,-16.5,0,8.999996,0.750012)"
       spreadMethod="pad"
       id="radialGradient3666-6-2"><stop
         style="stop-color:#ffffff;stop-opacity:1;"
         offset="0"
         id="stop3662-7-9" /><stop
         style="stop-color:#3dc89a;stop-opacity:1;"
         offset="1"
         id="stop3664-5-1" /></radialGradient><linearGradient
       id="paint0_linear_3_169"
       x1="12"
       y1="1"
       x2="12"
       y2="12"
       gradientUnits="userSpaceOnUse"><stop
         stop-color="#AAA2FF"
         id="stop132364" /><stop
         offset="1"
         stop-color="#7164EE"
         id="stop132366" /></linearGradient><linearGradient
       id="paint0_linear_3_169-2"
       x1="12"
       y1="1"
       x2="12"
       y2="12"
       gradientUnits="userSpaceOnUse"><stop
         stop-color="#AAA2FF"
         id="stop133305" /><stop
         offset="1"
         stop-color="#7164EE"
         id="stop133307" /></linearGradient></defs><path
     d="M 50,5 C 9.0909092,5 5,25.454546 5,50 5,82.727274 17.272728,95 50,95 82.727274,95 95,82.727274 95,50 95,25.454546 90.909093,5 50,5 Z"
     sketch:type="MSShapeGroup"
     id="path6"
     style="font-variation-settings:normal;display:inline;opacity:1;vector-effect:none;fill:#1a87e2;fill-opacity:1;stroke-width:4.56656;stroke-linecap:butt;stroke-linejoin:miter;stroke-miterlimit:4;stroke-dasharray:none;stroke-dashoffset:0;stroke-opacity:1;-inkscape-stroke:none;stop-color:#000000;stop-opacity:1"
     sodipodi:nodetypes="sssss"
     inkscape:label="Shape"
     transform="matrix(0.24444444,0,0,0.24444444,-0.22222222,-0.22222222)"
     sodipodi:insensitive="true" /><g
     inkscape:groupmode="layer"
     id="layer4"
     inkscape:label="Colors References"
     style="display:none"
     sodipodi:insensitive="true"
     inkscape:highlight-color="#cc5ecc"><rect
       style="display:inline;fill:#3947be;fill-opacity:1;stroke-width:22.6872;paint-order:markers stroke fill"
       id="rect7816"
       width="1.9999923"
       height="2"
       x="12"
       y="-2.9999964"
       rx="0"
       ry="0"
       inkscape:label="Dark Blue" /><rect
       style="display:inline;fill:#6c7ad8;fill-opacity:1;stroke-width:22.6873;paint-order:markers stroke fill"
       id="rect7820"
       width="2"
       height="2.0000076"
       x="9"
       y="-3.0000041"
       rx="0"
       ry="0"
       inkscape:label="Blue" /><rect
       style="display:inline;fill:#33cc33;fill-opacity:1;stroke-width:22.6873;paint-order:markers stroke fill"
       id="rect7814"
       width="2"
       height="2.0000076"
       x="6"
       y="-3.0000041"
       rx="0"
       ry="0"
       inkscape:label="Green" /><rect
       style="display:inline;fill:#ffc328;fill-opacity:1;stroke-width:22.6872;paint-order:markers stroke fill"
       id="rect7824"
       width="1.9999926"
       height="2.0000002"
       x="3"
       y="-2.9999964"
       rx="0"
       ry="0"
       inkscape:label="Yellow" /><rect
       style="display:inline;fill:#cc5e55;fill-opacity:1;stroke-width:22.6873;paint-order:markers stroke fill"
       id="rect7822"
       width="2"
       height="2.0000076"
       x="0"
       y="-3.0000038"
       rx="0"
       ry="0"
       inkscape:label="Red" /><rect
       style="display:inline;fill:#0bb1cb;fill-opacity:1;stroke-width:22.6872;paint-order:markers stroke fill"
       id="rect3087"
       width="1.9999919"
       height="1.9999996"
       x="-3"
       y="12.000004"
       rx="0"
       ry="0"
       inkscape:label="Blue 4" /><rect
       style="display:inline;fill:#2a92c9;fill-opacity:1;stroke-width:22.6873;paint-order:markers stroke fill"
       id="rect3085"
       width="2"
       height="2.0000079"
       x="-3"
       y="8.9999962"
       rx="0"
       ry="0"
       inkscape:label="Blue 3" /><rect
       style="display:inline;fill:#006699;fill-opacity:1;stroke-width:22.6873;paint-order:markers stroke fill"
       id="rect3089"
       width="2"
       height="2.0000076"
       x="-3"
       y="6.0000038"
       rx="0"
       ry="0"
       inkscape:label="Blue 2" /><rect
       style="display:inline;fill:#002a44;fill-opacity:1;stroke-width:22.6873;paint-order:markers stroke fill"
       id="rect3083"
       width="2"
       height="2.0000076"
       x="-3"
       y="2.9999962"
       rx="0"
       ry="0"
       inkscape:label="Blue 1" /><rect
       style="display:inline;fill:#2c2d3d;fill-opacity:1;stroke-width:22.6873;paint-order:markers stroke fill"
       id="rect3456"
       width="2"
       height="2.0000076"
       x="-3"
       y="-3.8146973e-06"
       rx="0"
       ry="0"
       inkscape:label="Gray" /><rect
       style="display:inline;fill:#16171c;fill-opacity:1;stroke-width:22.6872;paint-order:markers stroke fill"
       id="rect3091"
       width="1.9999924"
       height="2"
       x="-3"
       y="-3"
       rx="0"
       ry="0"
       inkscape:label="Black" /></g><g
     id="g173847"
     transform="matrix(1.8893203,0,0,1.8893203,-3.9953126,-3.9974929)"><path
       d="m 8.467,4.233 a 4.2335,4.2335 0 1 0 0,8.467 4.2335,4.2335 0 0 0 0,-8.467 z M 8.21,5.083 C 8.23,5.085 8.247,5.097 8.256,5.115 L 8.674,5.994 C 8.877,6 9.082,6.035 9.281,6.099 L 9.952,5.428 a 0.056,0.056 0 0 1 0.07,-0.008 l 0.534,0.325 a 0.057,0.057 0 0 1 0.024,0.068 l -0.324,0.914 c 0.122,0.136 0.226,0.285 0.31,0.444 h 0.997 c 0.027,0 0.05,0.019 0.056,0.044 l 0.148,0.608 a 0.057,0.057 0 0 1 -0.03,0.065 l -1.25,0.273 A 2.044,2.044 0 0 0 7.817,6.53 L 7.807,6.524 7.539,5.288 c 0,-0.026 0.019,-0.049 0.044,-0.055 L 8.19,5.085 C 8.197,5.083 8.203,5.083 8.21,5.083 Z M 6.23,5.977 a 0.056,0.056 0 0 1 0.037,0.01 l 0.95,0.865 A 2.038,2.038 0 0 0 7.08,9.965 V 9.979 L 6.226,10.922 A 0.058,0.058 0 0 1 6.156,10.914 L 5.714,10.473 A 0.057,0.057 0 0 1 5.707,10.401 L 6.241,9.587 A 2.21,2.21 0 0 1 6.014,9.014 L 5.092,8.788 A 0.057,0.057 0 0 1 5.049,8.733 V 8.108 c 0,-0.027 0.019,-0.05 0.045,-0.056 L 6.044,7.854 C 6.097,7.679 6.171,7.512 6.262,7.358 L 5.745,6.506 A 0.057,0.057 0 0 1 5.753,6.436 L 6.195,5.994 A 0.055,0.055 0 0 1 6.23,5.977 Z m 4.232,2.93 1.24,0.278 c 0.022,0.012 0.034,0.04 0.027,0.065 L 11.567,9.853 A 0.057,0.057 0 0 1 11.508,9.896 L 10.536,9.839 a 2.21,2.21 0 0 1 -0.383,0.483 l 0.265,0.911 a 0.057,0.057 0 0 1 -0.026,0.065 L 9.85,11.61 A 0.057,0.057 0 0 1 9.779,11.599 L 9.133,10.874 a 2.236,2.236 0 0 1 -0.538,0.06 l -0.48,0.873 A 0.057,0.057 0 0 1 8.05,11.835 L 7.446,11.672 A 0.057,0.057 0 0 1 7.404,11.614 L 7.73,10.379 7.736,10.376 a 2.044,2.044 0 0 0 2.726,-1.468 z"
       fill="#ffffff"
       id="path173720" /></g></svg>
